icons/animal_tick_fill.svg

<svg width="48" height="48" viewBox="0 0 48 48" fill="none" xmlns="http://www.w3.org/2000/svg">
<path fill-rule="evenodd" clip-rule="evenodd" d="M20.5722 10.283C20.1762 9.89802 19.5431 9.90694 19.1581 10.3029L16.1581 13.3886C15.811 13.7457 15.7795 14.3037 16.0841 14.6975C16.8283 15.6597 17.5471 16.372 18.458 16.8728C19.0742 17.2115 19.7406 17.4324 20.4978 17.5908C20.0932 18.0431 19.7058 18.5602 19.3425 19.1273L16.3518 17.9897L15.169 15.2341C14.9512 14.7266 14.3632 14.4918 13.8557 14.7097C13.3482 14.9275 13.1133 15.5155 13.3312 16.023L14.6812 19.1681C14.788 19.417 14.9913 19.612 15.2446 19.7083L18.3641 20.8949C18.0627 21.5251 17.79 22.1892 17.5519 22.8738L14.7543 21.8097L12.8318 18.9304C12.5251 18.4711 11.9041 18.3473 11.4448 18.654C10.9855 18.9607 10.8618 19.5817 11.1685 20.041L13.2685 23.186C13.3839 23.3589 13.5503 23.4915 13.7446 23.5654L16.9888 24.7994C16.9319 25.0382 16.8796 25.2778 16.832 25.5179C16.8008 25.5301 16.76 25.5463 16.7108 25.5664C16.5969 25.6129 16.4372 25.6807 16.2467 25.7682C15.8684 25.942 15.3563 26.1995 14.8374 26.5304C14.325 26.8572 13.7659 27.2806 13.3252 27.7974C12.886 28.3124 12.5001 28.9977 12.5001 29.8228C12.5001 31.0275 12.9383 32.3529 13.3233 33.3033C13.5221 33.7942 13.7205 34.2175 13.8693 34.5185C13.9439 34.6694 14.0065 34.7905 14.0512 34.8752C14.0735 34.9176 14.0914 34.9509 14.1041 34.9743L14.1192 35.002L14.1237 35.01L14.1256 35.0135C14.3938 35.4963 15.003 35.6709 15.4857 35.4027C15.9684 35.1346 16.1424 34.5261 15.8745 34.0434L15.8724 34.0395L15.8624 34.0211C15.8531 34.004 15.8388 33.9774 15.8201 33.942C15.7828 33.8712 15.7282 33.7658 15.6622 33.6322C15.5297 33.3643 15.3531 32.9871 15.1769 32.5524C14.8119 31.6513 14.5001 30.6239 14.5001 29.8228C14.5001 29.6451 14.583 29.4047 14.8469 29.0952C15.1093 28.7875 15.4877 28.4878 15.9128 28.2167C16.1201 28.0845 16.3291 27.965 16.5267 27.86C16.5091 28.1565 16.5001 28.4511 16.5001 28.7429C16.5001 34.7075 20.2722 38 24.0001 38C27.728 38 31.5001 34.7075 31.5001 28.7429C31.5001 28.4511 31.4911 28.1565 31.4735 27.86C31.6711 27.965 31.8801 28.0845 32.0874 28.2167C32.5125 28.4878 32.8909 28.7875 33.1533 29.0952C33.4172 29.4047 33.5001 29.6451 33.5001 29.8228C33.5001 30.6239 33.1883 31.6513 32.8233 32.5524C32.6471 32.9871 32.4705 33.3643 32.338 33.6322C32.272 33.7658 32.2174 33.8712 32.1801 33.942C32.1778 33.9464 32.1755 33.9507 32.1733 33.9549C32.1579 33.9839 32.1459 34.0062 32.1378 34.0211L32.1278 34.0395L32.1257 34.0434C31.8578 34.5261 32.0318 35.1346 32.5145 35.4027C32.9972 35.6709 33.6064 35.4963 33.8746 35.0135L33.8751 35.0126L33.8766 35.01L33.881 35.002L33.8961 34.9743C33.9088 34.9509 33.9267 34.9176 33.949 34.8752C33.9937 34.7905 34.0563 34.6694 34.1309 34.5185C34.2797 34.2175 34.4781 33.7942 34.6769 33.3033C35.0619 32.3529 35.5001 31.0275 35.5001 29.8228C35.5001 28.9977 35.1142 28.3124 34.675 27.7974C34.2343 27.2806 33.6752 26.8572 33.1628 26.5304C32.6439 26.1995 32.1318 25.942 31.7535 25.7682C31.5631 25.6807 31.4033 25.6129 31.2894 25.5664C31.2402 25.5463 31.1994 25.5301 31.1682 25.5179C31.1206 25.2778 31.0683 25.0382 31.0114 24.7994L34.2556 23.5654C34.4499 23.4915 34.6163 23.3589 34.7318 23.186L36.8318 20.041C37.1384 19.5817 37.0147 18.9607 36.5554 18.654C36.0961 18.3473 35.4751 18.4711 35.1685 18.9304L33.2459 21.8097L30.4484 22.8738C30.2102 22.1892 29.9375 21.5251 29.6361 20.8949L32.7556 19.7083C33.0089 19.612 33.2122 19.417 33.319 19.1681L34.669 16.023C34.8869 15.5155 34.6521 14.9275 34.1445 14.7097C33.637 14.4918 33.049 14.7266 32.8312 15.2341L31.6484 17.9897L28.6577 19.1273C28.635 19.0919 28.6122 19.0566 28.5893 19.0216C28.2459 18.4958 27.8818 18.0149 27.5024 17.5908C28.2596 17.4324 28.926 17.2115 29.5422 16.8728C30.4531 16.372 31.1719 15.6597 31.9161 14.6975C32.2208 14.3037 32.1892 13.7457 31.8421 13.3886L28.8421 10.3029C28.4571 9.90694 27.824 9.89802 27.428 10.283C27.032 10.668 27.0231 11.3011 27.4081 11.6971L29.7806 14.1373C29.3633 14.5933 28.985 14.8968 28.5788 15.1201C28.0083 15.4337 27.304 15.6326 26.2051 15.7828C25.9966 14.3743 25.0886 13.3142 24.0001 13.3142C22.9116 13.3142 22.0036 14.3743 21.7951 15.7828C20.6962 15.6326 19.9919 15.4337 19.4214 15.1201C19.0152 14.8968 18.6369 14.5933 18.2197 14.1373L20.5921 11.6971C20.9771 11.3011 20.9682 10.668 20.5722 10.283ZM33.0001 34.5285C33.8743 35.0142 33.8746 35.0135 33.8746 35.0135L33.0001 34.5285ZM15.0001 34.5285L14.1256 35.0135C14.1256 35.0135 14.1259 35.0142 15.0001 34.5285Z" fill="black"/>
</svg>

<svg
  xmlns="http://www.w3.org/2000/svg"
  width="24"
  height="24"
  viewBox="0 0 24 24"
  fill="none"
  stroke="currentColor"
  stroke-width="2"
  stroke-linecap="round"
  stroke-linejoin="round"
>
  <path
    fill-rule="evenodd"
    d="M20.572 10.283a1 1 0 0 0-1.414.02l-3 3.086a1 1 0 0 0-.074 1.309c.744.962 1.463 1.674 2.374 2.175.616.338 1.283.56 2.04.718-.405.452-.792.97-1.155 1.536l-2.991-1.137-1.183-2.756a1 1 0 1 0-1.838.789l1.35 3.145a1 1 0 0 0 .564.54l3.12 1.187c-.302.63-.575 1.294-.813 1.979l-2.798-1.064-1.922-2.88a1 1 0 1 0-1.664 1.111l2.1 3.145a1 1 0 0 0 .477.38l3.244 1.233q-.086.36-.157.719l-.121.048a11.912 11.912 0 0 0-1.873.964c-.513.327-1.072.75-1.513 1.267-.439.515-.825 1.2-.825 2.026 0 1.204.438 2.53.823 3.48a18 18 0 0 0 .781 1.671l.015.028.005.008.002.004a1 1 0 0 0 1.749-.97l-.003-.005-.01-.018-.042-.079a16.197 16.197 0 0 1-.643-1.39c-.365-.9-.677-1.928-.677-2.73 0-.177.083-.417.347-.727.262-.307.64-.607 1.066-.878.207-.133.416-.252.614-.357q-.027.445-.027.883C16.5 34.708 20.272 38 24 38s7.5-3.292 7.5-9.257q0-.438-.026-.883c.197.105.406.224.613.357.425.27.804.57 1.066.878.264.31.347.55.347.728 0 .8-.312 1.828-.677 2.73a16 16 0 0 1-.643 1.389l-.007.013-.035.066-.01.018-.002.004a1 1 0 1 0 1.749.97l.002-.003.004-.008.015-.028.053-.099a18.149 18.149 0 0 0 .728-1.572c.385-.95.823-2.275.823-3.48 0-.825-.386-1.51-.825-2.026-.44-.516-1-.94-1.512-1.267a12 12 0 0 0-1.995-1.012q-.071-.36-.157-.719l3.245-1.234a1 1 0 0 0 .476-.379l2.1-3.145a1 1 0 0 0-1.663-1.11l-1.923 2.879-2.798 1.064a19 19 0 0 0-.812-1.98l3.12-1.186a1 1 0 0 0 .563-.54l1.35-3.145a1 1 0 1 0-1.838-.789l-1.183 2.756-2.99 1.137-.069-.105a12 12 0 0 0-1.087-1.431c.758-.159 1.424-.38 2.04-.718.911-.501 1.63-1.213 2.374-2.176a1 1 0 0 0-.074-1.308l-3-3.086a1 1 0 0 0-1.434 1.394l2.373 2.44c-.418.456-.796.76-1.202.983-.57.314-1.275.513-2.374.663-.208-1.409-1.116-2.469-2.205-2.469s-1.996 1.06-2.205 2.469c-1.099-.15-1.803-.35-2.374-.663-.406-.223-.784-.527-1.201-.983l2.372-2.44a1 1 0 0 0-.02-1.414M33 34.529c.874.485.875.484.875.484zm-18 0-.874.484z"
    clip-rule="evenodd"
  />
</svg>
